X: 458
T:Sean Ryan's Jig
T:Castle Jig, The
T:Lonesome Jig, The
R:jig
C:Sean Ryan
S:my Bill from Kevin Burke and then Mike for the flute version.
H:In the Kevin Burke/Martin Hayes set, as above, followed by the
Nightingale (#150)
N:usually in Ador for fiddle; for flute, Edor.
N:fingering Ador on A whistle plays it in Edor.
B:fiddler Peter Horan (b. 1926, Kilavil, County Sligo) Flaherty, 1990;
B:pg. 69. Miller &amp; Perron, 1977; Vol. 2, No. 24
Z:Lesl
M:6/8
N:Posted to the woodenflute mailing list November 2001
K:Edor
f|:g{a}ge fed|edB {B}AFD|E~E2 BAF|ABd edB|
g2e faf|edB AFD|E~E2 BdB|1 AFD E2f:|2 AFD E2F||
GFE ede|fed BAF|DFA d3|DFA GFE|GFG AzA|{c}BAB def|edB AFD|BDF E2F|
GFE ede|fed BAF|DFA d3|dFA GFE|GFG AzA|{c}BAB def|edB AFD|BDF E3||
K:Ador
B|:c2A BAG|AGe dBG|A~A2 edB|deg AGE|c2A BdB|AGe dBG|A~A2 ege|dBG A2B:|
|:cBA aga|bag edB|GBd ~g3|GBd cBA|cBc d2d|ede gab|age dBG|EGB A2B:||

